img/icon.svg

<svg width="12" height="12" viewBox="0 0 12 12" fill="none" xmlns="http://www.w3.org/2000/svg">
<path fill-rule="evenodd" clip-rule="evenodd" d="M11.7071 0.292922C11.9813 0.567079 12.0722 0.975004 11.9406 1.33967L8.39269 11.1645C8.38327 11.1906 8.37277 11.2163 8.36123 11.2415C8.2575 11.4678 8.09098 11.6596 7.88145 11.7941C7.67193 11.9285 7.42819 12 7.17922 12C6.93025 12 6.68652 11.9285 6.47699 11.7941C6.2739 11.6637 6.11121 11.4796 6.00695 11.2622L4.25056 7.74946L0.737785 5.99308C0.52048 5.88882 0.336281 5.72613 0.205946 5.52304C0.07148 5.31351 0 5.06977 0 4.82081C0 4.57184 0.07148 4.32811 0.205946 4.11858C0.340411 3.90904 0.532208 3.74252 0.758542 3.6388C0.783746 3.62725 0.809419 3.61676 0.835495 3.60734L10.6604 0.0594744C11.025 -0.0722117 11.4329 0.0187638 11.7071 0.292922ZM3.07433 4.92528L5.44313 6.10968C5.63666 6.20645 5.79358 6.36337 5.89035 6.5569L7.07475 8.9257L9.33585 2.66417L3.07433 4.92528Z" fill="#12BFC5"/>
</svg>

<svg width="12" height="12" viewBox="0 0 12 12" fill="none" xmlns="http://www.w3.org/2000/svg"><path fill-rule="evenodd" clip-rule="evenodd" d="M11.707.293a1 1 0 01.234 1.047l-3.548 9.825a1.3 1.3 0 01-2.386.098L4.25 7.748.738 5.993a1.3 1.3 0 01.097-2.386L10.66.06a1 1 0 011.047.234zM3.074 4.925l2.37 1.185a1 1 0 01.446.447l1.185 2.369 2.26-6.262-6.26 2.261z" fill="#12BFC5"/></svg>
